X:1
T:Please to See the King
T:Our King
C:Traditional Welsh
C:arr. John Bromka, 1991
M:3/4
L:1/4
V:1 clef=treble name=&quot;S&quot;
V:2 clef=treble name=&quot;A&quot;
V:3 clef=bass name=&quot;T&quot;
V:4 clef=bass name=&quot;B&quot;
%%staves [(1 2) | (3 4)]
Q:84
K:Bb
%
[V:1] B/G/ | F B    c   | B2 B/G/   | F B/c/   d/B/ | c2  B/c/ |
[V:2] D/C/ | D D/E/ F   | F2 F/E/   | D F      G    | C2  D/E/ |
